X:1
T:SEXTETTE
T:From the Opera "Lucia De Lammermoor"
T:Gaetano Donezetti
%%score { ( 1 3 ) | ( 2 4 ) }
L:1/8
Q:1/4=60
M:3/4
K:C
V:1 treble nm="Piano"
V:3 treble 
V:2 bass 
V:4 bass 
V:1
!p!"^Slowly (with expression)" z/ .G,/.C/.E/ .G.[CEG] z [B,FG] | z/ .G,/.C/.E/ .G.[CEG]!mp! G>G |: %2
 [EG]2- [EG]>[Ec] [Ge]>[Fd] | [Ec]2 [EG] z [Ec]>[GB] | [FA]2- [FA]>[GB] [Ac]>[Fd] | %5
 [EG]>E [EG] z [EG]>[Ge] | [Ge]>[Af] [Fd] z/ G/ [FB]>[Fd] | [^F^d]>[Ge] [Ec] z [Ge]>[Ge] | %8
 [Ae]2- [Ae]/d/f/e/ d/c/B/A/ | [E^G]2 [GB] z!mf!!<(! [Ee]>[Ee]!<)! | %10
!f! [Fdf]2- [Fdf]/[ce]/!mf![Bd]/[Ac]/!>(! [GB]/[FA]/!mp![EG]/[DF]/!>)! | %11
!mp! [DF]/[CE]/[FA]/[EG]/ [EG] z!mf!!<(! [Ge]>[ce]!<)! | %12
!f! [Fdf]2- [Fdf]/[ce]/!mf![Bd]/[Ac]/ [GB]/[FA]/!mp![EG]/[DF]/ | %13
 [DF]/[CE]/[FA]/[EG]/ [EG] z!mf! G>G | [EGe]2 [EGe]d/c/!<(! c/B/A/!f!G/!<)! |1 %15
 [G-^cg-]2 [Gdg][Ff][^Cc]!mf![Dd] | [df]>[ce]{/g} [df]>[ce] [df]>[ce] | %17
 ed[Q:1/4=34] !fermata![df]3/2 z/[Q:1/4=60]!mp! G>G :|2 [G^cg]2 (3[Fdf][Aa][Gg] (3[Af]!f![Ge][Fd] | %19
 [Fd]>[Ec] [Af]2- [Af]>[Ge] | [Ge][Fd][Q:1/4=34]!>(! !fermata!e3!mp! d!>)! |:[Q:1/4=60] c4 (3cBA | %22
 A2-!p! (3A[B,D^F][B,=FG] (3[B,FB][B,FA][B,FG] | G2!p! (3c[EGe][EGd] (3[EGc][EGB][CEA] | %24
 A2-!p! (3A[B,D^F][B,=FG] (3[B,FB]!mp![B,FA][B,FG] | (3:2:2G2!mf! G [EGce]2- [EGce]>[EGd] | %26
 [E-G-d]2 (3[EG^c]!>(!^GA!mf! (3=c_BA!>)! | %27
!mp!!<(! (3:2:2[Aa] [Aa]2- (3:2:2[Aa]!mf! [Aa]2- (3:2:2[Aa]!f! [Aa]2 | %28
 [Ac_ea]2 [Gc=eg]2 [^Fc_e^f]2!<)! | [Gc=eg]2-!>(! (3[Gceg]!ff![^F^d][Ge] (3g!f![^DB][Ec]!fff! | %30
 [Fd]2[Q:1/4=54] (3[Fd]!mf![E^c][Fd] (3[Af]!mp![FA]!>)![FB] :|!p![Q:1/4=60] [EGc]2 [Gce]2 d>c | %32
 d>e d>G d>G |[Q:1/4=54] c e2 e dc |!p! d>e[Q:1/4=48] d>G[Q:1/4=34] !fermata!d z | %35
 z[Q:1/4=80]!f! G [GB]/[Ac]/[Bd]/[ce]/ [df]2- | [df]2!ff! [c^f]4 |[Q:1/4=60] [GBdfg]6 | %38
!mf! !////-![egc']3 c3 | .[cegc'] z z4 |] %40
V:2
 [C,,C,] z z2 [G,,,G,,] z | [C,,C,] z z2!ped! G,,[F,G,B,]!ped-up! |: %2
!ped! C,,/C,/E,/G,/!ped-up! C[E,G,C]!ped! G,,[F,G,B,]!ped-up! | %3
!ped! C,,/C,/E,/G,/!ped-up! C[E,G,C]!ped! C,[E,G,C]!ped-up! | %4
!ped! C,,/C,/F,/A,/!ped-up! C[F,A,C]!ped! F,,[F,A,C]!ped-up! | %5
!ped! C,,/C,/E,/G,/!ped-up! C[E,G,C]!ped! C,[E,G,C]!ped-up! | %6
!ped! G,,/D,/F,/G,/!ped-up! B,[F,G,B,]!ped! G,,[F,G,B,]!ped-up! | %7
!ped! C,,/C,/E,/G,/!ped-up! C[E,G,C]!ped! C,[E,G,C]!ped-up! | %8
!p!!ped! F,,/A,,/D,/F,/!ped-up!!ped! A,[F,A,D]!ped-up!!ped! F,,[F,A,]!ped-up! | %9
!ped! E,,/B,,/E,/^G,/!ped-up! B,[G,B,E]!mp!!ped! E,[G,B,]!ped-up! | %10
!mf!!ped! =G,,/D,/F,/G,/!ped-up!!ped! B,!mp![F,G,B,]!ped-up! G,,!p![F,G,B,] | %11
!p!!ped! C,,/G,,/C,/E,/!ped-up! G,[E,G,C]!mp!!ped! G,,[E,G,C]!ped-up! | %12
!mf!!ped! =G,,/D,/F,/G,/!ped-up!!ped! B,!mp![F,G,B,]!ped-up!!>(! G,,!p![F,G,B,]!>)! | %13
!ped! C,,/G,,/C,/E,/!ped-up! G,[E,G,C]!ped! B,,[F,G,D]!ped-up! | %14
!ped! C,,/C,/E,/G,/!ped-up! C[G,CE]!ped! [D,,D,][G,B,F]!ped-up! |1 %15
!mf! [E,,E,][G,A,^C] [F,A,D]!>(! z z2!>)! |!mp! G,,[E,G,=C] G,,[E,G,C] G,,[E,G,C] | %17
 [G,,G,]2 !fermata!z2 z2 :|2!ff! A,,[G,A,^C] [D,F,A,D] z!>(! z2!>)! | %19
!mf! G,,[E,G,=C] G,,[E,G,C] G,,[E,G,C] | G,,[F,G,B,] [G,B,]2!mp! !fermata![G,,G,]2 |: %21
!ped! !arpeggio![C,,G,,E,] z!ped-up!!p! [E,,E,] z!ped! [G,,G,] z!ped-up! | %22
!ped!!p! [D,,D,] z!ped-up!!ped! [G,,,G,,] z!ped-up!!ped! [G,,D,] z!ped-up! | %23
!ped! !arpeggio![C,,G,,E,] z!ped-up!!ped! [E,,E,] z!ped-up!!ped! [G,,G,] z!ped-up! | %24
!ped! [D,,D,] z!ped-up!!ped! [G,,,G,,] z!ped-up!!<(!!ped! [G,,D,] z!<)!!ped-up! | %25
 [C,,C,][E,G,] [C,,C,][E,G,C] [_B,,,_B,,][E,G,C] | %26
!ped! [A,,,A,,][E,G,A,]!ped-up!!f!!ped! [E,,E,][G,A,^C]!ped-up!!ped! [A,,,A,,][G,A,C]!ped-up! | %27
!ped! (3z [F,A,D][F,A,D]!ped-up!!ped! (3z [G,A,^C][G,A,C]!ped-up!!ped! (3z [A,D][A,D]!ped-up! | %28
!ped! (3z [A,C_E][A,CE]!ped-up!!ped! (3z!ff! [G,C=E][G,CE]!ped-up!!ped! (3z [_A,C_E][A,CE]!ped-up! | %29
!ped! [G,,,G,,]/G,,/C,/=E,/!ped-up!!ped! G,[E,G,C]!ped-up!!ped! G,,[E,G,C]!ped-up! | %30
 G,,,/G,,/B,,/D,/!ped! G,[F,G,B,]!ped-up!!ped! G,,[F,G,B,]!ped-up! :| %31
 C,,/G,,/C,/E,/ G,!pp!!ped![E,G,C] z [E,G,C]!ped-up! | %32
!p! G,,/D,/F,/G,/ B,!pp![F,G,B,] G,,[F,G,B,] | %33
!p! C,,/G,,/C,/E,/ G,!pp!!ped![E,G,C] z [E,G,C]!ped-up! | %34
 !arpeggio![G,,D,B,]4-!ped! !fermata![G,,D,B,] z!ped-up! |!<(! z6!<)! | z6 | %37
!ff!!ped!!8vb(! !////-!G,,3 G,,,3!ped-up! |!ff!!ped! [C,,C,]2 [G,,,G,,]2 [E,,,E,,]2!ped-up! | %39
!fff! .[C,,,C,,]!8vb)! z z4 |] %40
V:3
 x6 | x6 |: x6 | x6 | x6 | x6 | x6 | x6 | x6 | x6 | x6 | x6 | x6 | x6 | x6 |1 x6 | G6 | %17
 [GB]2 x4 :|2 x6 | x6 | x2 !fermata![FB]4 |: [CEG]!p![CEG] z [CEG] (3[CEG][CE][CE] | %22
 [B,F]!pp![B,F] x4 | [CE]!pp![CE] x4 | [B,F]!pp![B,F] x4 | [CE][CE] x4 | x6 | x6 | x6 | x6 | x6 :| %31
 z4 [EG]2 | F4 x2 | [EG]6 | [FG-]4 G z | x6 | x6 | x6 | x6 | x6 |] %40
V:4
 x6 | x6 |: x6 | x6 | x6 | x6 | x6 | x6 | x6 | x6 | x6 | x6 | x6 | x6 | x6 |1 x6 | x6 | x6 :|2 x6 | %19
 x6 | x6 |: x6 | x6 | x6 | x6 | x6 | x6 | D,2 E,2 F,2 | [^F,,^F,]2 [G,,G,]2 [_A,,_A,]2 | x6 | x6 :| %31
 x6 | x6 | x6 | x6 | x6 | x6 |!8vb(! x6 | x6 | x!8vb)! x5 |] %40

